vivaldi-source/chromium/chrome/browser/resources/new_tab_page/realbox/icons/dino.svg

<svg width="22" height="23" viewBox="0 0 22 23" fill="none" xmlns="http://www.w3.org/2000/svg"><path d="M21 6V1.5h-1v-1h-8v1h-1V8h-1v1H8.5v1H7v1H6v1H4v-1H3v-1H2V8H1v6h1v1h1v1h1v1h1v1h1v4h2v-1H7v-1h1v-1h1v-1h1v1h1v3h2v-1h-1v-4h1v-1h1v-1.5h1V11h1v1h1v-2h-2V8h4V7h-3V6h5Zm-7-3h-1V2h1v1ZM4 19H0v-.5h4v.5Zm18 0h-8v-.5h8v.5ZM5 21H3v-.5h2v.5Zm-3 1.5H0V22h2v.5Zm19-.5h-.5v-.5h.5v.5Z" fill="#5F6368"/></svg>

<svg width="22" height="23" viewBox="0 0 22 23" fill="none" xmlns="http://www.w3.org/2000/svg">
<path d="M21 6V1.5H20V0.5H12V1.5H11V8H10V9H8.5V10H7V11H6V12H4V11H3V10H2V8H1V14H2V15H3V16H4V17H5V18H6V22H8V21H7V20H8V19H9V18H10V19H11V22H13V21H12V17H13V16H14V14.5H15V11H16V12H17V10H15V8H19V7H16V6H21ZM14 3H13V2H14V3ZM4 19H0V18.5H4V19ZM22 19H14V18.5H22V19ZM5 21H3V20.5H5V21ZM2 22.5H0V22H2V22.5ZM21 22H20.5V21.5H21V22Z" fill="#5F6368"/>
</svg>
